X: 5224
T: Brogan's Ferry
R: reel
M: 4/4
K: Dmajor
FAAF D4|FAAF GFED|F2 EF DEFD|EFGA BEEG|
A2 FA D2 AF|F2 AF GABc|d2 Ad fdAd|d2 fd eABc|
d2 fd edfd|A2 cA eAcA|d2 fd efga|beef g2 fe|
d2 fd edfd|A2 cA eAcA|d3 A BAFE|Ddde fdAG|

